Adwaita++-Dark/actions/22/go-first.svg

<svg fill="none" height="22" viewBox="0 0 22 22" width="22" xmlns="http://www.w3.org/2000/svg">
  <g fill="#e6ddff">
    <path d="m4.5 3h2.66665v15.9999h-2.66665z"/>
    <path d="m7.91732 11 7.62498 7.625c.2612.2612.6175.375.9584.375h1.3333v-1.3333c0-.3409-.1139-.6972-.375-.9584l-5.7082-5.7082 5.7082-5.70828c.2612-.26116.375-.61751.375-.95833v-1.33333h-1.3333c-.3409 0-.6972.11387-.9584.375z"/>
  </g>
</svg>

<svg xmlns="http://www.w3.org/2000/svg" fill="none" width="22" height="22" viewBox="0 0 22 22">
 <path fill="#E6DDFF" d="M4.5 3H7.16665V18.9999H4.5V3Z"/>
 <path fill="#E6DDFF" d="M7.91732 11L15.5423 18.625C15.8035 18.8862 16.1598 19 16.5007 19H17.834V17.6667C17.834 17.3258 17.7201 16.9695 17.459 16.7083L11.7508 11.0001L17.459 5.29182C17.7202 5.03066 17.834 4.67431 17.834 4.33349V3.00016H16.5007C16.1598 3.00016 15.8035 3.11403 15.5423 3.37516L7.91732 11Z"/>
</svg>
